elementary-icon-theme/elementary/status/24/aptdaemon-add.svg

<?xml version="1.0" encoding="UTF-8" standalone="no"?>
<!-- Created with Inkscape (http://www.inkscape.org/) -->

<svg
   xmlns:dc="http://purl.org/dc/elements/1.1/"
   xmlns:cc="http://creativecommons.org/ns#"
   xmlns:rdf="http://www.w3.org/1999/02/22-rdf-syntax-ns#"
   xmlns:svg="http://www.w3.org/2000/svg"
   xmlns="http://www.w3.org/2000/svg"
   xmlns:xlink="http://www.w3.org/1999/xlink"
   xmlns:sodipodi="http://sodipodi.sourceforge.net/DTD/sodipodi-0.dtd"
   xmlns:inkscape="http://www.inkscape.org/namespaces/inkscape"
   version="1.0"
   width="24"
   height="24"
   id="svg2"
   inkscape:version="0.47 r22583"
   sodipodi:docname="aptdaemon-add.svg">
  <metadata
     id="metadata53">
    <rdf:RDF>
      <cc:Work
         rdf:about="">
        <dc:format>image/svg+xml</dc:format>
        <dc:type
           rdf:resource="http://purl.org/dc/dcmitype/StillImage" />
        <dc:title></dc:title>
      </cc:Work>
    </rdf:RDF>
  </metadata>
  <sodipodi:namedview
     pagecolor="#ffffff"
     bordercolor="#666666"
     borderopacity="1"
     objecttolerance="10"
     gridtolerance="10"
     guidetolerance="10"
     inkscape:pageopacity="0"
     inkscape:pageshadow="2"
     inkscape:window-width="640"
     inkscape:window-height="482"
     id="namedview51"
     showgrid="false"
     inkscape:zoom="9.8333333"
     inkscape:cx="12"
     inkscape:cy="11.79661"
     inkscape:window-x="0"
     inkscape:window-y="24"
     inkscape:window-maximized="0"
     inkscape:current-layer="svg2" />
  <defs
     id="defs4">
    <linearGradient
       x1="44.994774"
       y1="17.5"
       x2="3.0052247"
       y2="17.5"
       id="linearGradient2886"
       xlink:href="#linearGradient3275"
       gradientUnits="userSpaceOnUse"
       gradientTransform="matrix(0.51232292,0,0,0.49974342,-0.29580687,-0.2455087)"
       spreadMethod="reflect" />
    <linearGradient
       id="linearGradient3275">
      <stop
         id="stop3277"
         style="stop-color:#ffffff;stop-opacity:0"
         offset="0" />
      <stop
         id="stop3283"
         style="stop-color:#ffffff;stop-opacity:1"
         offset="0.245" />
      <stop
         id="stop3285"
         style="stop-color:#ffffff;stop-opacity:1"
         offset="0.77350003" />
      <stop
         id="stop3279"
         style="stop-color:#ffffff;stop-opacity:0"
         offset="1" />
    </linearGradient>
    <linearGradient
       x1="26"
       y1="22"
       x2="26"
       y2="8"
       id="linearGradient2889"
       xlink:href="#linearGradient2929"
       gradientUnits="userSpaceOnUse"
       gradientTransform="matrix(0.49999997,0,0,0.57142853,1.0587409e-6,-1.5714267)" />
    <linearGradient
       id="linearGradient2929">
      <stop
         id="stop2931"
         style="stop-color:#ffffff;stop-opacity:1"
         offset="0" />
      <stop
         id="stop2933"
         style="stop-color:#ffffff;stop-opacity:1"
         offset="0.27127403" />
      <stop
         id="stop2935"
         style="stop-color:#ffffff;stop-opacity:0.6901961"
         offset="0.38989457" />
      <stop
         id="stop2937"
         style="stop-color:#ffffff;stop-opacity:0"
         offset="1" />
    </linearGradient>
    <linearGradient
       x1="23.451576"
       y1="30.554907"
       x2="43.00663"
       y2="45.934479"
       id="linearGradient2892"
       xlink:href="#linearGradient4559"
       gradientUnits="userSpaceOnUse"
       gradientTransform="matrix(0.65683735,0,0,0.5870422,-3.4028653,-3.3874657)" />
    <linearGradient
       id="linearGradient4559">
      <stop
         id="stop4561"
         style="stop-color:#ffffff;stop-opacity:0"
         offset="0" />
      <stop
         id="stop4563"
         style="stop-color:#ffffff;stop-opacity:0"
         offset="1" />
    </linearGradient>
    <linearGradient
       x1="24.822832"
       y1="15.377745"
       x2="24.996943"
       y2="37.27668"
       id="linearGradient2895"
       xlink:href="#linearGradient2919"
       gradientUnits="userSpaceOnUse"
       gradientTransform="matrix(0.65683735,0,0,0.77823139,-3.4038718,-8.378696)" />
    <linearGradient
       id="linearGradient2919">
      <stop
         id="stop2921"
         style="stop-color:#dac197;stop-opacity:1"
         offset="0" />
      <stop
         id="stop2923"
         style="stop-color:#c1a581;stop-opacity:1"
         offset="0.26124284" />
      <stop
         id="stop2925"
         style="stop-color:#dbc298;stop-opacity:1"
         offset="0.31579992" />
      <stop
         id="stop2927"
         style="stop-color:#a68b60;stop-opacity:1"
         offset="1" />
    </linearGradient>
    <linearGradient
       x1="15.464298"
       y1="7.9756851"
       x2="15.464298"
       y2="45.04248"
       id="linearGradient2897"
       xlink:href="#linearGradient2909"
       gradientUnits="userSpaceOnUse"
       gradientTransform="matrix(0.5122637,0,0,0.49974342,-0.29433284,-0.7372407)" />
    <linearGradient
       id="linearGradient2909">
      <stop
         id="stop2911"
         style="stop-color:#c9af8b;stop-opacity:1"
         offset="0" />
      <stop
         id="stop2913"
         style="stop-color:#ad8757;stop-opacity:1"
         offset="0.24941477" />
      <stop
         id="stop2915"
         style="stop-color:#c2a57f;stop-opacity:1"
         offset="0.31247044" />
      <stop
         id="stop2917"
         style="stop-color:#9d7d53;stop-opacity:1"
         offset="1" />
    </linearGradient>
    <radialGradient
       cx="5"
       cy="41.5"
       r="5"
       fx="5"
       fy="41.5"
       id="radialGradient2903"
       xlink:href="#linearGradient3681"
       gradientUnits="userSpaceOnUse"
       gradientTransform="matrix(0.5938225,0,0,1.5366531,-6.6594735,-103.93618)" />
    <linearGradient
       id="linearGradient3681">
      <stop
         id="stop3683"
         style="stop-color:#000000;stop-opacity:1"
         offset="0" />
      <stop
         id="stop3685"
         style="stop-color:#000000;stop-opacity:0"
         offset="1" />
    </linearGradient>
    <linearGradient
       x1="17.554192"
       y1="46.000275"
       x2="17.554192"
       y2="34.999718"
       id="linearGradient2905"
       xlink:href="#linearGradient3703"
       gradientUnits="userSpaceOnUse"
       gradientTransform="matrix(1.7570316,0,0,1.3969574,-17.394014,-16.411698)" />
    <linearGradient
       id="linearGradient3703">
      <stop
         id="stop3705"
         style="stop-color:#000000;stop-opacity:0"
         offset="0" />
      <stop
         id="stop3711"
         style="stop-color:#000000;stop-opacity:1"
         offset="0.5" />
      <stop
         id="stop3707"
         style="stop-color:#000000;stop-opacity:0"
         offset="1" />
    </linearGradient>
    <radialGradient
       cx="5"
       cy="41.5"
       r="5"
       fx="5"
       fy="41.5"
       id="radialGradient3003"
       xlink:href="#linearGradient3681"
       gradientUnits="userSpaceOnUse"
       gradientTransform="matrix(0.5938225,0,0,1.5366531,41.140892,-103.93618)" />
    <linearGradient
       inkscape:collect="always"
       xlink:href="#linearGradient3943"
       id="linearGradient5530"
       gradientUnits="userSpaceOnUse"
       gradientTransform="matrix(0.2817955,0,0,0.2800956,12.186027,12.02218)"
       x1="24.138529"
       y1="7.0478544"
       x2="24.138529"
       y2="39.268391" />
    <linearGradient
       id="linearGradient3943">
      <stop
         style="stop-color:#ffffff;stop-opacity:1;"
         offset="0"
         id="stop3945" />
      <stop
         style="stop-color:#ffffff;stop-opacity:0;"
         offset="1"
         id="stop3947" />
    </linearGradient>
    <linearGradient
       id="linearGradient3242-7">
      <stop
         offset="0"
         style="stop-color:#eef87e;stop-opacity:1"
         id="stop3244-5" />
      <stop
         offset="0.26238"
         style="stop-color:#cde34f;stop-opacity:1"
         id="stop3246-9" />
      <stop
         offset="0.66093999"
         style="stop-color:#93b723;stop-opacity:1"
         id="stop3248-7" />
      <stop
         offset="1"
         style="stop-color:#5a7e0d;stop-opacity:1"
         id="stop3250-8" />
    </linearGradient>
    <linearGradient
       id="linearGradient2490-3">
      <stop
         offset="0"
         style="stop-color:#365f0e;stop-opacity:1"
         id="stop2492-3" />
      <stop
         offset="1"
         style="stop-color:#84a718;stop-opacity:1"
         id="stop2494-8" />
    </linearGradient>
    <radialGradient
       r="31.000002"
       fy="51.694645"
       fx="69.447609"
       cy="51.694645"
       cx="69.447609"
       gradientTransform="matrix(0,0.35684158,-0.38820022,0,37.356571,-10.114114)"
       gradientUnits="userSpaceOnUse"
       id="radialGradient3138"
       xlink:href="#linearGradient3242-7"
       inkscape:collect="always" />
    <linearGradient
       y2="51.244411"
       x2="72.421684"
       y1="124.75623"
       x1="72.421684"
       gradientTransform="matrix(0.1482266,0,0,0.1494387,5.4507901,5.356682)"
       gradientUnits="userSpaceOnUse"
       id="linearGradient3140"
       xlink:href="#linearGradient2490-3"
       inkscape:collect="always" />
  </defs>
  <g
     id="layer1">
    <g
       transform="matrix(0.51791078,0,0,0.45553546,-0.37816169,2.2033833)"
       id="g3305"
       style="opacity:0.4;display:inline">
      <rect
         width="2.9601951"
         height="15.366531"
         x="-3.6903627"
         y="-47.848343"
         transform="scale(-1,-1)"
         id="rect2484"
         style="fill:url(#radialGradient2903);fill-opacity:1;stroke:none" />
      <rect
         width="40.41172"
         height="15.366531"
         x="3.6903627"
         y="32.481812"
         id="rect2486"
         style="fill:url(#linearGradient2905);fill-opacity:1;stroke:none" />
      <rect
         width="2.9601951"
         height="15.366531"
         x="44.110001"
         y="-47.848343"
         transform="scale(1,-1)"
         id="rect3444"
         style="fill:url(#radialGradient3003);fill-opacity:1;stroke:none;display:inline" />
    </g>
    <path
       d="m 4.3215344,3.5105773 15.1106106,0 c 0.882111,0 1.279083,-0.1432 1.532464,0.499744 l 1.53768,4.489679 0,12.3386357 c 0,0.776254 0.05273,0.657651 -0.829386,0.657651 l -19.3458141,0 c -0.8821142,0 -0.8293873,0.118603 -0.8293873,-0.657651 l 0,-12.3386357 1.5376796,-4.489679 c 0.2463125,-0.629958 0.404039,-0.499744 1.2861532,-0.499744 z"
       id="path2488"
       style="fill:url(#linearGradient2895);fill-opacity:1;fill-rule:nonzero;stroke:url(#linearGradient2897);stroke-width:0.99420071;stroke-linecap:round;stroke-linejoin:miter;stroke-miterlimit:4;stroke-opacity:1;stroke-dasharray:none;stroke-dashoffset:0;marker:none;visibility:visible;display:block;overflow:visible" />
    <path
       d="m 4.8027725,4.0167913 14.1655605,0 c 0.826944,0 1.338741,0.278124 1.685102,1.04248 l 1.193033,3.208212 0,11.5663397 c 0,0.729962 -0.419421,1.097478 -1.246366,1.097478 l -17.2802952,0 c -0.826944,0 -1.1642608,-0.404205 -1.1642608,-1.13417 l 0,-11.5296477 1.1545456,-3.276997 c 0.2309091,-0.592393 0.6657347,-0.973695 1.4926809,-0.973695 z"
       id="path2490"
       style="opacity:0.50549454;fill:none;stroke:url(#linearGradient2892);stroke-width:0.74211526;stroke-linecap:butt;stroke-linejoin:miter;stroke-miterlimit:4;stroke-opacity:1;stroke-dasharray:none;stroke-dashoffset:0;marker:none;visibility:visible;display:block;overflow:visible" />
    <path
       d="m 11,3.0000003 c 0.666667,0 1.333333,0 2,0 0,2.666665 0,5.333334 0,7.9999997 -0.196865,0 -0.39373,0 -0.590593,0 -0.201563,0 -0.403126,0 -0.604688,0 -0.162265,0 -0.32453,0 -0.486792,0 C 11.21195,11 11.105975,11 11,11 11,8.3333343 11,5.6666653 11,3.0000003 z"
       id="rect3326"
       style="opacity:0.4;fill:url(#linearGradient2889);fill-opacity:1;fill-rule:nonzero;stroke:none;stroke-width:1;marker:none;visibility:visible;display:inline;overflow:visible;enable-background:accumulate" />
    <path
       d="m 1.5,8.5000003 20.999885,0"
       id="path3273"
       style="opacity:0.4;fill:none;stroke:url(#linearGradient2886);stroke-width:0.99999994px;stroke-linecap:square;stroke-linejoin:miter;stroke-opacity:1;display:inline" />
  </g>
  <path
     style="color:#000000;fill:url(#radialGradient3138);fill-opacity:1;fill-rule:nonzero;stroke:url(#linearGradient3140);stroke-width:0.98542744;stroke-linecap:round;stroke-linejoin:round;stroke-miterlimit:4;stroke-opacity:1;stroke-dasharray:none;stroke-dashoffset:0;marker:none;visibility:visible;display:inline;overflow:visible;enable-background:accumulate"
     d="m 16.489465,16.507295 0,-3 4,0 0,3 3,0 0,4 -3,0 0,2.999991 -4,0 0,-2.999991 -2.989465,0 0,-4 2.989465,0 z"
     id="path2262"
     sodipodi:nodetypes="ccccccccccccc" />
  <path
     style="opacity:0.4;fill:none;stroke:url(#linearGradient5530);stroke-width:1;stroke-linecap:butt;stroke-linejoin:miter;stroke-miterlimit:4;stroke-opacity:1;stroke-dasharray:none;display:inline"
     d="m 17.489465,17.507295 0,-3 2,0 0,3 3,0 0,2 -3,0 0,3 -2,0 0,-3 -3,0 0,-2 3,0 z"
     id="path2272"
     sodipodi:nodetypes="ccccccccccccc" />
</svg>

<?xml version="1.0" encoding="UTF-8" standalone="no"?>
<!-- Created with Inkscape (http://www.inkscape.org/) -->
<svg
   xmlns:svg="http://www.w3.org/2000/svg"
   xmlns="http://www.w3.org/2000/svg"
   xmlns:xlink="http://www.w3.org/1999/xlink"
   version="1.0"
   width="24"
   height="24"
   id="svg2">
  <defs
     id="defs4">
    <linearGradient
       id="linearGradient2264">
      <stop
         id="stop2266"
         style="stop-color:#d7e866;stop-opacity:1"
         offset="0" />
      <stop
         id="stop2268"
         style="stop-color:#8cab2a;stop-opacity:1"
         offset="1" />
    </linearGradient>
    <linearGradient
       x1="24.103895"
       y1="15.168831"
       x2="24.103895"
       y2="32.485161"
       id="linearGradient3140"
       xlink:href="#linearGradient2264"
       gradientUnits="userSpaceOnUse"
       gradientTransform="matrix(0.4691323,0,0,0.4663025,7.7004786,6.8084619)" />
    <linearGradient
       id="linearGradient4222">
      <stop
         id="stop4224"
         style="stop-color:#ffffff;stop-opacity:1"
         offset="0" />
      <stop
         id="stop4226"
         style="stop-color:#ffffff;stop-opacity:0"
         offset="1" />
    </linearGradient>
    <linearGradient
       x1="24.138529"
       y1="8.6973467"
       x2="24.138529"
       y2="39.236618"
       id="linearGradient3137"
       xlink:href="#linearGradient4222"
       gradientUnits="userSpaceOnUse"
       gradientTransform="matrix(0.2817955,0,0,0.2800956,12.196562,11.014885)" />
    <linearGradient
       x1="44.994774"
       y1="17.5"
       x2="3.0052247"
       y2="17.5"
       id="linearGradient2886"
       xlink:href="#linearGradient3275"
       gradientUnits="userSpaceOnUse"
       gradientTransform="matrix(0.5123229,0,0,0.4997434,-0.2958069,-0.2455087)"
       spreadMethod="reflect" />
    <linearGradient
       id="linearGradient3275">
      <stop
         id="stop3277"
         style="stop-color:#ffffff;stop-opacity:0"
         offset="0" />
      <stop
         id="stop3283"
         style="stop-color:#ffffff;stop-opacity:1"
         offset="0.245" />
      <stop
         id="stop3285"
         style="stop-color:#ffffff;stop-opacity:1"
         offset="0.77350003" />
      <stop
         id="stop3279"
         style="stop-color:#ffffff;stop-opacity:0"
         offset="1" />
    </linearGradient>
    <linearGradient
       x1="26"
       y1="22"
       x2="26"
       y2="8"
       id="linearGradient2889"
       xlink:href="#linearGradient2929"
       gradientUnits="userSpaceOnUse"
       gradientTransform="matrix(0.5,0,0,0.5714285,1.0587409e-6,-1.5714267)" />
    <linearGradient
       id="linearGradient2929">
      <stop
         id="stop2931"
         style="stop-color:#ffffff;stop-opacity:1"
         offset="0" />
      <stop
         id="stop2933"
         style="stop-color:#ffffff;stop-opacity:1"
         offset="0.27127403" />
      <stop
         id="stop2935"
         style="stop-color:#ffffff;stop-opacity:0.6901961"
         offset="0.38989457" />
      <stop
         id="stop2937"
         style="stop-color:#ffffff;stop-opacity:0"
         offset="1" />
    </linearGradient>
    <linearGradient
       x1="23.451576"
       y1="30.554907"
       x2="43.00663"
       y2="45.934479"
       id="linearGradient2892"
       xlink:href="#linearGradient4559"
       gradientUnits="userSpaceOnUse"
       gradientTransform="matrix(0.6568374,0,0,0.5870422,-3.4028653,-3.3874657)" />
    <linearGradient
       id="linearGradient4559">
      <stop
         id="stop4561"
         style="stop-color:#ffffff;stop-opacity:0"
         offset="0" />
      <stop
         id="stop4563"
         style="stop-color:#ffffff;stop-opacity:0"
         offset="1" />
    </linearGradient>
    <linearGradient
       x1="24.822832"
       y1="15.377745"
       x2="24.996943"
       y2="37.27668"
       id="linearGradient2895"
       xlink:href="#linearGradient2919"
       gradientUnits="userSpaceOnUse"
       gradientTransform="matrix(0.6568374,0,0,0.7782314,-3.4038718,-8.378696)" />
    <linearGradient
       id="linearGradient2919">
      <stop
         id="stop2921"
         style="stop-color:#dac197;stop-opacity:1"
         offset="0" />
      <stop
         id="stop2923"
         style="stop-color:#c1a581;stop-opacity:1"
         offset="0.26124284" />
      <stop
         id="stop2925"
         style="stop-color:#dbc298;stop-opacity:1"
         offset="0.31579992" />
      <stop
         id="stop2927"
         style="stop-color:#a68b60;stop-opacity:1"
         offset="1" />
    </linearGradient>
    <linearGradient
       x1="15.464298"
       y1="7.9756851"
       x2="15.464298"
       y2="45.04248"
       id="linearGradient2897"
       xlink:href="#linearGradient2909"
       gradientUnits="userSpaceOnUse"
       gradientTransform="matrix(0.5122637,0,0,0.4997434,-0.2943328,-0.7372407)" />
    <linearGradient
       id="linearGradient2909">
      <stop
         id="stop2911"
         style="stop-color:#c9af8b;stop-opacity:1"
         offset="0" />
      <stop
         id="stop2913"
         style="stop-color:#ad8757;stop-opacity:1"
         offset="0.24941477" />
      <stop
         id="stop2915"
         style="stop-color:#c2a57f;stop-opacity:1"
         offset="0.31247044" />
      <stop
         id="stop2917"
         style="stop-color:#9d7d53;stop-opacity:1"
         offset="1" />
    </linearGradient>
    <radialGradient
       cx="5"
       cy="41.5"
       r="5"
       fx="5"
       fy="41.5"
       id="radialGradient2903"
       xlink:href="#linearGradient3681"
       gradientUnits="userSpaceOnUse"
       gradientTransform="matrix(0.5938225,0,0,1.5366531,-6.6594735,-103.93618)" />
    <linearGradient
       id="linearGradient3681">
      <stop
         id="stop3683"
         style="stop-color:#000000;stop-opacity:1"
         offset="0" />
      <stop
         id="stop3685"
         style="stop-color:#000000;stop-opacity:0"
         offset="1" />
    </linearGradient>
    <linearGradient
       x1="17.554192"
       y1="46.000275"
       x2="17.554192"
       y2="34.999718"
       id="linearGradient2905"
       xlink:href="#linearGradient3703"
       gradientUnits="userSpaceOnUse"
       gradientTransform="matrix(1.7570316,0,0,1.3969574,-17.394014,-16.411698)" />
    <linearGradient
       id="linearGradient3703">
      <stop
         id="stop3705"
         style="stop-color:#000000;stop-opacity:0"
         offset="0" />
      <stop
         id="stop3711"
         style="stop-color:#000000;stop-opacity:1"
         offset="0.5" />
      <stop
         id="stop3707"
         style="stop-color:#000000;stop-opacity:0"
         offset="1" />
    </linearGradient>
    <radialGradient
       cx="5"
       cy="41.5"
       r="5"
       fx="5"
       fy="41.5"
       id="radialGradient3003"
       xlink:href="#linearGradient3681"
       gradientUnits="userSpaceOnUse"
       gradientTransform="matrix(0.5938225,0,0,1.5366531,41.140892,-103.93618)" />
  </defs>
  <g
     id="layer1">
    <g
       transform="matrix(0.5179108,0,0,0.4555355,-0.3781617,2.2033833)"
       id="g3305"
       style="opacity:0.4;display:inline">
      <rect
         width="2.9601951"
         height="15.366531"
         x="-3.6903627"
         y="-47.848343"
         transform="scale(-1,-1)"
         id="rect2484"
         style="fill:url(#radialGradient2903);fill-opacity:1;stroke:none" />
      <rect
         width="40.41172"
         height="15.366531"
         x="3.6903627"
         y="32.481812"
         id="rect2486"
         style="fill:url(#linearGradient2905);fill-opacity:1;stroke:none" />
      <rect
         width="2.9601951"
         height="15.366531"
         x="44.110001"
         y="-47.848343"
         transform="scale(1,-1)"
         id="rect3444"
         style="fill:url(#radialGradient3003);fill-opacity:1;stroke:none;display:inline" />
    </g>
    <path
       d="M 4.3215344,3.5105773 L 19.432145,3.5105773 C 20.314256,3.5105773 20.711228,3.3673773 20.964609,4.0103213 L 22.502289,8.5000003 L 22.502289,20.838636 C 22.502289,21.61489 22.555019,21.496287 21.672903,21.496287 L 2.3270889,21.496287 C 1.4449747,21.496287 1.4977016,21.61489 1.4977016,20.838636 L 1.4977016,8.5000003 L 3.0353812,4.0103213 C 3.2816937,3.3803633 3.4394202,3.5105773 4.3215344,3.5105773 L 4.3215344,3.5105773 z"
       id="path2488"
       style="fill:url(#linearGradient2895);fill-opacity:1;fill-rule:nonzero;stroke:url(#linearGradient2897);stroke-width:0.99420071;stroke-linecap:round;stroke-linejoin:miter;marker:none;stroke-miterlimit:4;stroke-dasharray:none;stroke-dashoffset:0;stroke-opacity:1;visibility:visible;display:block;overflow:visible" />
    <path
       d="M 4.8027725,4.0167913 L 18.968333,4.0167913 C 19.795277,4.0167913 20.307074,4.2949153 20.653435,5.0592713 L 21.846468,8.2674833 L 21.846468,19.833823 C 21.846468,20.563785 21.427047,20.931301 20.600102,20.931301 L 3.3198068,20.931301 C 2.4928628,20.931301 2.155546,20.527096 2.155546,19.797131 L 2.155546,8.2674833 L 3.3100916,4.9904863 C 3.5410007,4.3980933 3.9758263,4.0167913 4.8027725,4.0167913 L 4.8027725,4.0167913 z"
       id="path2490"
       style="opacity:0.50549454;fill:none;stroke:url(#linearGradient2892);stroke-width:0.74211526;stroke-linecap:butt;stroke-linejoin:miter;marker:none;stroke-miterlimit:4;stroke-dasharray:none;stroke-dashoffset:0;stroke-opacity:1;visibility:visible;display:block;overflow:visible" />
    <path
       d="M 11,3.0000003 C 11.666667,3.0000003 12.333333,3.0000003 13,3.0000003 C 13,5.6666653 13,8.3333343 13,11 C 12.803135,11 12.60627,11 12.409407,11 C 12.207844,11 12.006281,11 11.804719,11 C 11.642454,11 11.480189,11 11.317927,11 C 11.21195,11 11.105975,11 11,11 C 11,8.3333343 11,5.6666653 11,3.0000003 z"
       id="rect3326"
       style="opacity:0.4;fill:url(#linearGradient2889);fill-opacity:1;fill-rule:nonzero;stroke:none;stroke-width:1;marker:none;visibility:visible;display:inline;overflow:visible;enable-background:accumulate" />
    <path
       d="M 1.5,8.5000003 L 22.499885,8.5000003"
       id="path3273"
       style="opacity:0.4;fill:none;stroke:url(#linearGradient2886);stroke-width:0.99999994px;stroke-linecap:square;stroke-linejoin:miter;stroke-opacity:1;display:inline" />
  </g>
  <path
     d="M 16.5,15.5 L 16.5,12.5 L 20.5,12.5 L 20.5,15.5 L 23.5,15.5 L 23.5,19.5 L 20.5,19.5 L 20.5,22.499991 L 16.5,22.499991 L 16.5,19.5 L 13.510535,19.5 L 13.510535,15.5 L 16.5,15.5 z"
     id="path2262"
     style="fill:url(#linearGradient3140);fill-opacity:1;fill-rule:evenodd;stroke:#699536;stroke-width:1;stroke-linecap:butt;stroke-linejoin:round;stroke-miterlimit:4;stroke-dasharray:none;stroke-opacity:1;display:inline" />
  <path
     d="M 17.5,16.5 L 17.5,13.5 L 19.5,13.5 L 19.5,16.5 L 22.5,16.5 L 22.5,18.5 L 19.5,18.5 L 19.5,21.5 L 17.5,21.5 L 17.5,18.5 L 14.5,18.5 L 14.5,16.5 L 17.5,16.5 z"
     id="path2272"
     style="opacity:0.4;fill:none;fill-opacity:1;fill-rule:evenodd;stroke:url(#linearGradient3137);stroke-width:1;stroke-linecap:butt;stroke-linejoin:miter;stroke-miterlimit:4;stroke-dasharray:none;stroke-opacity:1;display:inline" />
</svg>
